Sweet-Rainbow/icons/camera-video.svg

<?xml version="1.0" encoding="UTF-8" standalone="no"?>
<!-- Generator: Gravit.io -->

<svg
   xmlns:dc="http://purl.org/dc/elements/1.1/"
   xmlns:cc="http://creativecommons.org/ns#"
   xmlns:rdf="http://www.w3.org/1999/02/22-rdf-syntax-ns#"
   xmlns:svg="http://www.w3.org/2000/svg"
   xmlns="http://www.w3.org/2000/svg"
   xmlns:sodipodi="http://sodipodi.sourceforge.net/DTD/sodipodi-0.dtd"
   xmlns:inkscape="http://www.inkscape.org/namespaces/inkscape"
   style="isolation:isolate"
   viewBox="0 0 36 36"
   width="48"
   height="48"
   version="1.1"
   id="svg11"
   sodipodi:docname="camera-video.svg"
   inkscape:version="0.92.4 (5da689c313, 2019-01-14)">
  <metadata
     id="metadata17">
    <rdf:RDF>
      <cc:Work
         rdf:about="">
        <dc:format>image/svg+xml</dc:format>
        <dc:type
           rdf:resource="http://purl.org/dc/dcmitype/StillImage" />
        <dc:title></dc:title>
      </cc:Work>
    </rdf:RDF>
  </metadata>
  <defs
     id="defs15" />
  <sodipodi:namedview
     pagecolor="#ffffff"
     bordercolor="#666666"
     borderopacity="1"
     objecttolerance="10"
     gridtolerance="10"
     guidetolerance="10"
     inkscape:pageopacity="0"
     inkscape:pageshadow="2"
     inkscape:window-width="640"
     inkscape:window-height="480"
     id="namedview13"
     showgrid="false"
     inkscape:zoom="29.365243"
     inkscape:cx="25.325443"
     inkscape:cy="32"
     inkscape:current-layer="svg11"
     units="px" />
  <linearGradient
     id="_lgradient_11"
     x1="-0.014458464"
     y1="0.009839246"
     x2="1.0164566"
     y2="1.072293"
     gradientTransform="matrix(46,0,0,46,1,1)"
     gradientUnits="userSpaceOnUse">
    <stop
       offset="1.3043478260869565%"
       stop-opacity="1"
       style="stop-color:rgb(254,172,94)"
       id="stop2" />
    <stop
       offset="53.04347826086957%"
       stop-opacity="1"
       style="stop-color:rgb(199,121,208)"
       id="stop4" />
    <stop
       offset="99.56521739130434%"
       stop-opacity="1"
       style="stop-color:rgb(75,192,200)"
       id="stop6" />
  </linearGradient>
  <g
     id="g825"
     transform="matrix(0.7826087,0,0,0.7826087,-0.7826088,-0.7826088)">
    <path
       id="path9"
       d="m 22.616,17.999 h 6.883 c 1.222,0 2.214,0.992 2.214,2.215 v 2.494 0 l 3.449,-3.449 c 0.288,-0.288 0.853,-0.522 1.26,-0.522 h 2.34 c 0.407,0 0.738,0.331 0.738,0.738 v 15.323 c 0,0.408 -0.331,0.738 -0.738,0.738 h -2.34 c -0.407,0 -0.972,-0.233 -1.26,-0.521 l -3.449,-3.45 v 0 2.495 c 0,1.222 -0.992,2.215 -2.214,2.215 H 10.714 C 9.492,36.275 8.5,35.282 8.5,34.06 v -9.396 0 c 0,-0.814 0.661,-1.476 1.476,-1.476 v 0 c 0.815,0 1.476,0.662 1.476,1.476 v 0 7.92 c 0,0.407 0.331,0.738 0.738,0.738 h 15.833 c 0.407,0 0.738,-0.331 0.738,-0.738 V 21.69 c 0,-0.408 -0.331,-0.738 -0.738,-0.738 H 9.976 v 0 0 C 9.161,20.952 8.5,20.29 8.5,19.475 v 0 c 0,-0.814 0.661,-1.476 1.476,-1.476 v 0 h 9.872 L 16.804,13.94 h -5.352 v 0 c -0.611,0 -1.107,-0.496 -1.107,-1.107 v 0 c 0,-0.611 0.496,-1.108 1.107,-1.108 v 0 h 6.459 z m 9.097,8.88 v 0.516 l 0.428,0.428 4.407,4.407 v 0 -10.186 L 32.141,26.45 Z M 43,12.55 v 0 c 0,1.104 0.896,2 2,2 v 0 c 1.104,0 2,-0.896 2,-2 v 0 V 6 C 47,3.24 44.76,1 42,1 H 6 C 3.24,1 1,3.24 1,6 v 19 0 c 0,1.104 0.896,2 2,2 v 0 c 1.104,0 2,-0.896 2,-2 V 25 8 C 5,6.344 6.344,5 8,5 h 32 c 1.656,0 3,1.344 3,3 z M 5,35.45 v 0 c 0,-1.104 -0.896,-2 -2,-2 v 0 c -1.104,0 -2,0.896 -2,2 v 0 6.55 c 0,2.76 2.24,5 5,5 h 36 c 2.76,0 5,-2.24 5,-5 v -19.82 0 c 0,-1.104 -0.896,-2 -2,-2 v 0 c -1.104,0 -2,0.896 -2,2 v 0 V 40 c 0,1.656 -1.344,3 -3,3 H 8 C 6.344,43 5,41.656 5,40 Z"
       inkscape:connector-curvature="0"
       style="fill:url(#_lgradient_11);fill-rule:evenodd" />
  </g>
</svg>

<?xml version="1.0" encoding="UTF-8" standalone="no"?>
<!-- Generator: Gravit.io -->
<svg xmlns="http://www.w3.org/2000/svg" xmlns:xlink="http://www.w3.org/1999/xlink" style="isolation:isolate" viewBox="0 0 48 48" width="48pt" height="48pt"><linearGradient id="_lgradient_11" x1="-0.014458464773922156" y1="0.009839246119734024" x2="1.0164565923220248" y2="1.0722930524759795" gradientTransform="matrix(46,0,0,46,1,1)" gradientUnits="userSpaceOnUse"><stop offset="1.3043478260869565%" stop-opacity="1" style="stop-color:rgb(254,172,94)"/><stop offset="53.04347826086957%" stop-opacity="1" style="stop-color:rgb(199,121,208)"/><stop offset="99.56521739130434%" stop-opacity="1" style="stop-color:rgb(75,192,200)"/></linearGradient><path d=" M 22.616 17.999 L 29.499 17.999 C 30.721 17.999 31.713 18.991 31.713 20.214 L 31.713 22.708 L 31.713 22.708 L 35.162 19.259 C 35.45 18.971 36.015 18.737 36.422 18.737 L 38.762 18.737 C 39.169 18.737 39.5 19.068 39.5 19.475 L 39.5 34.798 C 39.5 35.206 39.169 35.536 38.762 35.536 L 36.422 35.536 C 36.015 35.536 35.45 35.303 35.162 35.015 L 31.713 31.565 L 31.713 31.565 L 31.713 34.06 C 31.713 35.282 30.721 36.275 29.499 36.275 L 10.714 36.275 C 9.492 36.275 8.5 35.282 8.5 34.06 L 8.5 24.664 L 8.5 24.664 C 8.5 23.85 9.161 23.188 9.976 23.188 L 9.976 23.188 C 10.791 23.188 11.452 23.85 11.452 24.664 L 11.452 24.664 L 11.452 32.584 C 11.452 32.991 11.783 33.322 12.19 33.322 L 28.023 33.322 C 28.43 33.322 28.761 32.991 28.761 32.584 L 28.761 21.69 C 28.761 21.282 28.43 20.952 28.023 20.952 L 9.976 20.952 L 9.976 20.952 L 9.976 20.952 C 9.161 20.952 8.5 20.29 8.5 19.475 L 8.5 19.475 C 8.5 18.661 9.161 17.999 9.976 17.999 L 9.976 17.999 L 19.848 17.999 L 16.804 13.94 L 11.452 13.94 L 11.452 13.94 C 10.841 13.94 10.345 13.444 10.345 12.833 L 10.345 12.833 C 10.345 12.222 10.841 11.725 11.452 11.725 L 11.452 11.725 L 17.911 11.725 L 22.616 17.999 Z  M 31.713 26.879 L 31.713 27.395 L 32.141 27.823 L 36.548 32.23 L 36.548 32.23 L 36.548 22.044 L 32.141 26.45 L 31.713 26.879 L 31.713 26.879 Z  M 43 12.55 L 43 12.55 C 43 13.654 43.896 14.55 45 14.55 L 45 14.55 C 46.104 14.55 47 13.654 47 12.55 L 47 12.55 L 47 6 C 47 3.24 44.76 1 42 1 L 6 1 C 3.24 1 1 3.24 1 6 L 1 25 L 1 25 C 1 26.104 1.896 27 3 27 L 3 27 C 4.104 27 5 26.104 5 25 L 5 25 L 5 8 C 5 6.344 6.344 5 8 5 L 40 5 C 41.656 5 43 6.344 43 8 L 43 12.55 L 43 12.55 L 43 12.55 L 43 12.55 Z  M 5 35.45 L 5 35.45 C 5 34.346 4.104 33.45 3 33.45 L 3 33.45 C 1.896 33.45 1 34.346 1 35.45 L 1 35.45 L 1 42 C 1 44.76 3.24 47 6 47 L 42 47 C 44.76 47 47 44.76 47 42 L 47 22.18 L 47 22.18 C 47 21.076 46.104 20.18 45 20.18 L 45 20.18 C 43.896 20.18 43 21.076 43 22.18 L 43 22.18 L 43 40 C 43 41.656 41.656 43 40 43 L 8 43 C 6.344 43 5 41.656 5 40 L 5 35.45 L 5 35.45 L 5 35.45 L 5 35.45 Z " fill-rule="evenodd" fill="url(#_lgradient_11)"/></svg>
